X: 1001
T: The Old Canaries.
%R: jig
B: Henry Playford "Apollo's Banquet", London 1687 (5th Edition)
F: https://archive.org/details/apollosbanquetco01rugg
Z: 2017 John Chambers <jc:trillian.mit.edu>
M: 6/4
L: 1/8
K: Dmix
% - - - - - - - - - -
|:\
f3ef2 d2e2f2 | g2a2f2 e4d2 ::\
d2e2f2 f3ga2 | d2e2f2 e4f2 ::\
f3ga2 d2e2f2 |
g2a2f2 e4d2 ::\
d2e2f2 f3ef2 | f3ef2 e4d2 ::\
f3ga2 e3fg2 | d3ef2 e4d2 ::
a2g2f2 b2a2g2 | a2g2f2 e4d2 ::\
d3ef2 f3ef2 | D2f4 e4d2 ::\
d3ef2 f3ga2 |
a2(ba)(gf) e4d2 ::\
D2f2f2 D2f2f2 | D2f2f2 e4d2 ::\
a2(ba)(gf) g2(ag)(fe) | f2(gf)(ed) e4d2 |]
% - - - - - - - - - -

%%sep 1 1 500
%%sep 1 1 500

